packages/icons/svg/Outline/map.svg

<svg width="24" height="24" viewBox="0 0 24 24" fill="none" xmlns="http://www.w3.org/2000/svg">
<g id="Icon/Outline/map">
<path id="Mask" fill-rule="evenodd" clip-rule="evenodd" d="M19 17.4541L17 16.5561V6.54611L19 7.44411V17.4541ZM13 7.44411L15 6.54611V16.5561L13 17.4541V7.44411ZM9 6.54611L11 7.44411V17.4541L9 16.5561V6.54611ZM5 7.44411L7 6.54611V16.5561L5 17.4541V7.44411ZM20.41 5.88611L16.41 4.08811C16.395 4.08111 16.379 4.08011 16.364 4.07411C16.323 4.05811 16.282 4.04711 16.24 4.03611C16.201 4.02611 16.162 4.01711 16.122 4.01311C16.083 4.00811 16.044 4.00711 16.004 4.00711C15.96 4.00711 15.917 4.00811 15.873 4.01311C15.836 4.01711 15.801 4.02611 15.765 4.03511C15.721 4.04611 15.678 4.05811 15.635 4.07411C15.621 4.08011 15.604 4.08111 15.59 4.08811L12 5.70111L8.41 4.08811C8.395 4.08111 8.379 4.08011 8.364 4.07411C8.323 4.05811 8.282 4.04711 8.24 4.03611C8.201 4.02611 8.162 4.01711 8.122 4.01311C8.083 4.00811 8.044 4.00711 8.004 4.00711C7.96 4.00711 7.917 4.00811 7.873 4.01311C7.836 4.01711 7.801 4.02611 7.765 4.03511C7.721 4.04611 7.678 4.05811 7.635 4.07411C7.621 4.08011 7.604 4.08111 7.59 4.08811L3.59 5.88611C3.231 6.04711 3 6.40411 3 6.79811V19.0001C3 19.3391 3.172 19.6551 3.457 19.8401C3.621 19.9461 3.81 20.0001 4 20.0001C4.139 20.0001 4.279 19.9711 4.41 19.9121L8 18.2991L11.59 19.9121C11.605 19.9191 11.621 19.9161 11.637 19.9221C11.754 19.9691 11.875 20.0001 12 20.0001C12.125 20.0001 12.246 19.9691 12.363 19.9221C12.378 19.9161 12.396 19.9191 12.41 19.9121L16 18.2991L19.59 19.9121C19.721 19.9711 19.861 20.0001 20 20.0001C20.19 20.0001 20.379 19.9461 20.543 19.8401C20.828 19.6551 21 19.3391 21 19.0001V6.79811C21 6.40411 20.769 6.04711 20.41 5.88611Z" fill="#000000"/>
</g>
</svg>

<svg fill="none" height="24" viewBox="0 0 24 24" width="24" xmlns="http://www.w3.org/2000/svg"><path clip-rule="evenodd" d="m19 17.4541-2-.898v-10.00996l2 .898zm-6-10.00996 2-.898v10.00996l-2 .898zm-4-.898 2 .898v10.00996l-2-.898zm-3.99998.898 2-.898v10.00996l-2 .898zm15.40998-1.55806-4-1.798c-.015-.007-.031-.008-.046-.014-.041-.016-.082-.027-.124-.038-.039-.01-.078-.019-.118-.023-.039-.005-.078-.006-.118-.006-.044 0-.087.001-.131.006-.037.004-.072.013-.108.022-.044.011-.087.023-.13.039-.014.006-.031.007-.045.014l-3.59 1.613-3.59-1.613c-.015-.007-.031-.008-.046-.014-.041-.016-.082-.027-.124-.038-.039-.01-.078-.019-.118-.023-.039-.005-.078-.006-.118-.006-.044 0-.087.001-.131.006-.037.004-.072.013-.108.022-.044.011-.087.023-.13.039-.014.006-.031.007-.045.014l-4 1.798c-.359.161-.59.518-.59.912v12.20202c0 .339.172.655.457.84.164.106.353.16.543.16.139 0 .279-.029.41-.088l3.59-1.613 3.59 1.613c.015.007.031.004.047.01.117.047.238.078.363.078s.246-.031.363-.078c.015-.006.033-.003.047-.01l3.59-1.613 3.59 1.613c.131.059.271.088.41.088.19 0 .379-.054.543-.16.285-.185.457-.501.457-.84v-12.20202c0-.394-.231-.751-.59-.912z" fill="#6b7280" fill-rule="evenodd"/></svg>
